X: 1
T:The Caduceus  "rpband"
M:6/8
L:1/8
Q:80
C:Robert Pearson
S:6/8 March
K:HP
|: A|
{g}f2{GdG}e{Gdc}d2c|
{g}B3/2{d}G/2{e}G{g}B3/2c/2d|
{g}A2{GdGe}A{g}A3/2d/2f|  !
{gfg}f3{g}e2|
A|
{g}f2{GdG}e{Gdc}d2c|
{g}B3/2{d}G/2{e}G{g}B3/2c/2d|  !
{g}c2{GdGe}Ag3/2f/2{g}e|
{Gdc}d3{gdc}d2:| |:
{g}c/4d3/4|  !
{gef}e2A{g}A2{GdGe}A|
{gfg}f2A{g}A2{GdGe}A|
g3/2{g}e/2g{fg}f3/2e/2{g}d|  !
{gef}e3{ag}a2|1
{g}c/4d3/4|
{gef}e2A{g}A2{GdGe}A|  !
{gfg}f2A{g}A3/2B/2d|
{g}c2{GdGe}Ag3/2f/2{g}e|
{Gdc}d3{gdc}d2:|2  !
A|
{g}f2{GdG}e{Gdc}d2c|
{g}B3/2{d}G/2{e}G{g}B3/2c/2d|
{g}c2{GdGe}Ag3/2f/2{g}e|  !
{Gdc}d3{gdc}d2|] |:
A|
f2{GdG}f{Gdc}d3/2e/2f|
{gef}e3/2d/2B{G}A2{g}B|  !
{g}A3/2d/2{G}d{g}c3/2e/2{G}e|
{g}f/2a3/2f{ef}e2A|
f2{GdG}f{Gdc}d3/2e/2f|  !
{gef}e3/2d/2B{G}A2d|
{g}c2{GdGe}Ag3/2f/2{g}e|
{Gdc}d3{gdc}d2:| |:  !
a|
{g}a2{GdG}af2{GdG}f|
{g}e3/2f/2g{fg}f2a|
f3/2d/2{G}d{g}A3/2d/2{G}d|  !
f/2{g}d3/2f{gef}e2|1
a|
{g}a2{GdG}af2{GdG}f|
{g}e3/2f/2g{fg}f2d|  !
{g}c2{GdGe}Ag3/2f/2{g}e|
{Gdc}d3{gdc}d2:|2
A|  !
{gfg}f3/2e/2f{Gdc}d3/2{g}c/2d|
{gef}e3/2d/2B{G}A2d|
{g}c2{GdGe}Ag3/2f/2{g}e|  !
{Gdc}d3{gdc}d2|]
